firefox-wordmark.svg

<?xml version="1.0" encoding="UTF-8" standalone="no"?>
<!DOCTYPE svg PUBLIC "-//W3C//DTD SVG 1.1//EN" "http://www.w3.org/Graphics/SVG/1.1/DTD/svg11.dtd">
<svg width="100%" height="100%" viewBox="0 0 172 42" version="1.1" xmlns="http://www.w3.org/2000/svg" xmlns:xlink="http://www.w3.org/1999/xlink" xml:space="preserve" xmlns:serif="http://www.serif.com/" style="fill-rule:evenodd;clip-rule:evenodd;stroke-linejoin:round;stroke-miterlimit:2;">
    <path d="M0.19,2.82L25.91,2.82L25.91,9.82L7.57,9.82L7.57,19.25L25.91,19.25L25.91,26.15L7.57,26.15L7.57,41.29L0.19,41.29L0.19,2.82ZM34.65,0.13C34.695,0.129 34.74,0.128 34.784,0.128C37.056,0.128 38.924,1.997 38.924,4.268C38.924,4.332 38.923,4.396 38.92,4.46C38.923,4.528 38.925,4.597 38.925,4.665C38.925,6.925 37.065,8.785 34.805,8.785C34.737,8.785 34.668,8.783 34.6,8.78C34.539,8.783 34.479,8.784 34.418,8.784C32.174,8.784 30.328,6.938 30.328,4.694C30.328,4.649 30.329,4.605 30.33,4.56C30.328,4.507 30.327,4.453 30.327,4.4C30.327,2.057 32.255,0.13 34.597,0.13C34.615,0.13 34.632,0.13 34.65,0.13ZM31,12.83L38.27,12.83L38.27,41.29L31,41.29L31,12.83ZM59.35,20.74C58.343,19.943 57.103,19.497 55.82,19.47C52.82,19.47 51.18,21.37 51.18,25.53L51.18,41.29L44,41.29L44,12.83L50.9,12.83L50.9,16.94C51.955,14.154 54.727,12.372 57.7,12.57C59.416,12.559 61.097,13.057 62.53,14L59.35,20.74ZM62.35,27.22C62.35,19.05 68.41,12.22 77,12.22C85.59,12.22 91.59,18.28 91.59,26.71L91.59,29.71L69.48,29.71C70.27,33.29 73.06,35.71 77.33,35.71C80.298,35.805 83.063,34.156 84.39,31.5L90.45,35.13C87.45,39.56 83.18,41.88 77.12,41.88C67.9,41.87 62.37,35.7 62.37,27.22L62.35,27.22ZM69.59,24L84.59,24C83.8,20.37 80.85,18.37 77,18.37C73.514,18.23 70.389,20.604 69.59,24ZM93.4,12.83L98.51,12.83L98.51,11.41C98.51,3.66 101.78,0.41 108.95,0.41L111.48,0.41L111.48,6.72L109.42,6.72C106.05,6.72 105.31,7.88 105.31,11.41L105.31,12.83L111.48,12.83L111.48,19.37L105.48,19.37L105.48,41.29L98.48,41.29L98.48,19.37L93.4,19.37L93.4,12.83ZM112.85,27.06C112.849,26.976 112.848,26.891 112.848,26.807C112.848,18.82 119.42,12.247 127.408,12.247C127.505,12.247 127.603,12.248 127.7,12.25C135.825,12.25 142.51,18.935 142.51,27.06C142.51,35.185 135.825,41.87 127.7,41.87C118.85,41.87 112.85,35.38 112.85,27.06ZM135.5,27.06C135.503,26.967 135.505,26.874 135.505,26.781C135.505,22.502 131.984,18.981 127.705,18.981C123.426,18.981 119.905,22.502 119.905,26.781C119.905,26.874 119.907,26.967 119.91,27.06C119.907,27.153 119.905,27.246 119.905,27.339C119.905,31.618 123.426,35.139 127.705,35.139C131.984,35.139 135.505,31.618 135.505,27.339C135.505,27.246 135.503,27.153 135.5,27.06ZM152.36,26.74L142.09,12.83L150.62,12.83L156.68,21.58L162.9,12.83L171.28,12.83L160.85,26.69L171.85,41.29L163.36,41.29L156.53,32L149.94,41.28L141.46,41.28L152.36,26.74Z" style="fill:white;fill-rule:nonzero;"/>
</svg>

<svg xmlns="http://www.w3.org/2000/svg" width="172" height="42"><path fill="context-fill #20123a" d="M.19 2.82h25.72v7H7.57v9.43h18.34v6.9H7.57v15.14H.19zM34.65.13a4.14 4.14 0 0 1 4.27 4.33 4.12 4.12 0 0 1-4.32 4.32 4.09 4.09 0 0 1-4.27-4.22A4.27 4.27 0 0 1 34.65.13zM31 12.83h7.27v28.46H31zm28.35 7.91a5.89 5.89 0 0 0-3.53-1.27c-3 0-4.64 1.9-4.64 6.06v15.76H44V12.83h6.9v4.11a6.79 6.79 0 0 1 6.8-4.37A8.69 8.69 0 0 1 62.53 14zm3 6.48c0-8.17 6.06-15 14.65-15s14.59 6.06 14.59 14.49v3H69.48c.79 3.58 3.58 6 7.85 6a7.62 7.62 0 0 0 7.06-4.21l6.06 3.63c-3 4.43-7.27 6.75-13.33 6.75-9.22-.01-14.75-6.18-14.75-14.66zM69.59 24h15c-.79-3.63-3.74-5.63-7.59-5.63A7.31 7.31 0 0 0 69.59 24zM93.4 12.83h5.11v-1.42c0-7.75 3.27-11 10.44-11h2.53v6.31h-2.06c-3.37 0-4.11 1.16-4.11 4.69v1.42h6.17v6.54h-6v21.92h-7V19.37H93.4zm19.45 14.23a14.56 14.56 0 0 1 14.85-14.81 14.81 14.81 0 1 1 0 29.62c-8.85 0-14.85-6.49-14.85-14.81zm22.65 0a7.8 7.8 0 1 0-15.59 0 7.8 7.8 0 1 0 15.59 0zm16.86-.32l-10.27-13.91h8.53l6.06 8.75 6.22-8.75h8.38l-10.43 13.86 11 14.6h-8.49L156.53 32l-6.59 9.28h-8.48z"/></svg>
